icons/line/location-marker.svg

<svg width="24" height="24" viewBox="0 0 24 24" fill="none" xmlns="http://www.w3.org/2000/svg">
<path fill-rule="evenodd" clip-rule="evenodd" d="M6 10C6 6.58614 8.67593 4 12 4C15.3241 4 18 6.58614 18 10C18 12.9816 16.4331 15.4998 14.7617 17.3292C13.9339 18.2352 13.1036 18.9463 12.4804 19.4303C12.3006 19.5699 12.1388 19.6901 12 19.7901C11.8612 19.6901 11.6994 19.5699 11.5196 19.4303C10.8964 18.9463 10.0661 18.2352 9.23827 17.3292C7.56691 15.4998 6 12.9816 6 10ZM11.4739 21.8504C11.4742 21.8506 11.4745 21.8508 12 21L11.4745 21.8508C11.7966 22.0497 12.2034 22.0497 12.5255 21.8508L12 21C12.5255 21.8508 12.5258 21.8506 12.5261 21.8504L12.527 21.8499L12.5291 21.8486L12.5352 21.8448L12.555 21.8323C12.5714 21.8219 12.5943 21.8073 12.6233 21.7885C12.6812 21.7509 12.7634 21.6965 12.8663 21.6259C13.0722 21.4847 13.3617 21.2782 13.7071 21.0099C14.3964 20.4746 15.3161 19.6875 16.2383 18.6782C18.0669 16.6767 20 13.6949 20 10C20 5.46096 16.4079 2 12 2C7.59208 2 4 5.46096 4 10C4 13.6949 5.93309 16.6767 7.76173 18.6782C8.68392 19.6875 9.60359 20.4746 10.2929 21.0099C10.6383 21.2782 10.9278 21.4847 11.1337 21.6259C11.2366 21.6965 11.3188 21.7509 11.3767 21.7885C11.4057 21.8073 11.4286 21.8219 11.445 21.8323L11.4648 21.8448L11.4709 21.8486L11.473 21.8499L11.4739 21.8504ZM10 10C10 8.89543 10.8954 8 12 8C13.1046 8 14 8.89543 14 10C14 11.1046 13.1046 12 12 12C10.8954 12 10 11.1046 10 10ZM12 6C9.79086 6 8 7.79086 8 10C8 12.2091 9.79086 14 12 14C14.2091 14 16 12.2091 16 10C16 7.79086 14.2091 6 12 6Z" fill="currentColor"/>
</svg>

<svg width="24" height="24" fill="none" xmlns="http://www.w3.org/2000/svg"><path fill-rule="evenodd" clip-rule="evenodd" d="M6 10c0-3.414 2.676-6 6-6s6 2.586 6 6c0 2.982-1.567 5.5-3.238 7.33A18.488 18.488 0 0112 19.79a18.49 18.49 0 01-2.762-2.46C7.567 15.5 6 12.981 6 10zm5.474 11.85L12 21l-.525.85a1 1 0 001.05 0L12 21l.526.85h.001l.002-.001.006-.004.02-.013a7.993 7.993 0 00.311-.206c.206-.141.496-.348.841-.616a20.487 20.487 0 002.531-2.332C18.067 16.677 20 13.695 20 10c0-4.539-3.592-8-8-8-4.408 0-8 3.461-8 8 0 3.695 1.933 6.677 3.762 8.678a20.485 20.485 0 002.53 2.332 17.706 17.706 0 001.085.778c.029.02.052.034.068.044l.02.013.006.004h.002v.001zM10 10a2 2 0 114 0 2 2 0 01-4 0zm2-4a4 4 0 100 8 4 4 0 000-8z" fill="currentColor"/></svg>
